!!!COM: Palestrina, Giovanni Perluigi da
!!!OPR: Missa In duplicibus minoribus (I)
!!!OMD: Sanctus rpt
!!!OTL: First Section
**kern	**kern	**kern	**kern	**kern
*Ibass	*Itenor	*Itenor	*Icalto	*Icant
!Bassus	!Tenor 2	!Tenor 1	!Altus	!Cantus
*clefF4	*clefGv2	*clefGv2	*clefG2	*clefG2
*k[]	*k[]	*k[]	*k[]	*k[]
*E:phr	*E:phr	*E:phr	*E:phr	*E:phr
*M4/2	*M4/2	*M4/2	*M4/2	*M4/2
=1	=1	=1	=1	=1
0r	0r	0r	0r	1e
.	.	.	.	1g
=2	=2	=2	=2	=2
0r	0r	0r	1A	1.a
.	.	.	1c	.
.	.	.	.	2g
=3	=3	=3	=3	=3
0r	0r	1r	1.d	2.f
.	.	.	.	4g
.	.	1A	.	4a
.	.	.	.	4b
.	.	.	2c	[2cc
=4	=4	=4	=4	=4
0r	0r	1c	2A	4cc]
.	.	.	.	4b
.	.	.	2c	1a
.	.	[1d	1B	.
.	.	.	.	2g#
=5	=5	=5	=5	=5
0r	1A	2d]	2r	0a
.	.	2c	1e	.
.	1c	2A	.	.
.	.	2c	[2a	.
=6	=6	=6	=6	=6
0r	1.d	1B	2a]	2r
.	.	.	2g	4d
.	.	.	.	4e
.	.	2.A	2f	4f
.	.	.	.	4g
.	2c	.	4e	[2a
.	.	4B	4d	.
=7	=7	=7	=7	=7
1r	2A	4c	1e	2a]
.	.	4d	.	.
.	2c	2.e	.	4g
.	.	.	.	4f
1E	2B	.	1e	[1g
.	.	4d	.	.
.	2e	[2c	.	.
=8	=8	=8	=8	=8
1G	1d	2c]	1r	1g]
.	.	2B	.	.
[1A	1c	2c	2r	2e
.	.	2A	4c	[2cc
.	.	.	4d	.
=9	=9	=9	=9	=9
2A]	0r	2c	4e	2cc]
.	.	.	4f	.
2G	.	2d	2.g	2b
2E	.	1e	.	2g
.	.	.	4f	.
2G	.	.	[2e	2b
=10	=10	=10	=10	=10
1F	2r	2.A	2e]	1a
.	2.A	.	2d	.
.	.	4B	.	.
1E	.	2c	[1e	1r
.	4G	.	.	.
.	2G	4B	.	.
.	.	4A	.	.
=11	=11	=11	=11	=11
2r	1B	1G	1e]	0r
2.E	.	.	.	.
.	2c	1r	2r	.
4E	.	.	.	.
2D	[2d	.	[2A	.
=12	=12	=12	=12	=12
2F	4d]	0r	4A]	1r
.	4c	.	4A	.
2G	2.e	.	2B	.
1A	.	.	4c	2r
.	4d	.	4d	.
.	[2c	.	4e	[2e
.	.	.	4f	.
=13	=13	=13	=13	=13
1G	2c]	0r	1g	4e]
.	.	.	.	4e
.	2B	.	.	2d
2F	2A	.	2c	2f
2E	[2c	.	[2e	2g
=14	=14	=14	=14	=14
1F	2c]	1r	2e]	1a
.	4B	.	2d	.
.	4A	.	.	.
2.E	2B	2r	[1e	2.g
.	[2e	[2B	.	.
4F	.	.	.	4a
=15	=15	=15	=15	=15
2G	4e]	4B]	1e]	2b
.	4d	4B	.	.
2A	4c	2A	.	2.cc
.	4B	.	.	.
1F	1A	2c	1r	.
.	.	.	.	4b
.	.	2d	.	[2a
=16	=16	=16	=16	=16
1E	1B	0e	1r	2a]
.	.	.	.	2g#
1AA	1A	.	2r	2a
.	.	.	[2A	[2cc
=17	=17	=17	=17	=17
0r	0r	2c	4A]	4cc]
.	.	.	4A	4cc
.	.	2.d	2G	2b
.	.	.	2B	2g
.	.	8c	.	.
.	.	8B	.	.
.	.	2A	2c	[2a
=18	=18	=18	=18	=18
2r	0r	1B	2d	2a]
2.E	.	.	1e	4g#
.	.	.	.	4f#
.	.	1r	.	2g#
4E	.	.	.	.
2D	.	.	[2f	[2a
=19	=19	=19	=19	=19
2F	1r	0r	4f]	2a]
.	.	.	4e	.
2G	.	.	1d	4g
.	.	.	.	4f
1A	2r	.	.	2e
.	[2A	.	2c#	2e
=20	=20	=20	=20	=20
2F#	4A]	2r	4d	1d
.	4A	.	4c	.
2.G	2G	2.d	4B	.
.	.	.	4A	.
.	2B	.	2G	1r
4F	.	4d	.	.
2E	2c	2G	[2c	.
=21	=21	=21	=21	=21
1D	1d	2A	2c]	1r
.	.	2F	2B	.
2C	2e	2G	1c	2r
[2c	2c	2A	.	[2e
=22	=22	=22	=22	=22
2c]	2r	1G	1r	4e]
.	.	.	.	4e
2B	2d	.	.	2d
2A	2c	1r	2r	2f
2G	2B	.	[2e	2g
=23	=23	=23	=23	=23
1F	1A	1r	4e]	1.a
.	.	.	4e	.
.	.	.	2d	.
2.E	1B	2r	1e	.
.	.	[2E	.	2g
4F	.	.	.	.
=24	=24	=24	=24	=24
2G	2r	4E]	2B	2e
.	.	4E	.	.
2A	2.A	2D	2.d	1f
2D	.	2F	.	.
.	4A	.	4c	.
2E	2G	2G	2B	[2e
=25	=25	=25	=25	=25
1F	2c	1A	2A	2e]
.	2A	.	2E	4d
.	.	.	.	4c
1F	1r	1A	2r	1d
.	.	.	[2A	.
=26	=26	=26	=26	=26
1E	2r	1B	4A]	1e
.	.	.	4A	.
.	2.e	.	2G	.
[1AA	.	2.e	2.c	2r
.	4d	.	.	.
.	4c	.	.	[2a
.	4B	4d	4d	.
=27	=27	=27	=27	=27
2AA]	2A	2c	1e	2a]
2E	2B	2B	.	2g#
1AA	1c	1A	1e	1a
=28	=28	=28	=28	=28
[0E	[0B	[0G#	[0e	[0b
=29	=29	=29	=29	=29
0E]	0B]	0G#]	0e]	0b]
*-	*-	*-	*-	*-
!!!CDT: 1525/^1526/-1594/2/2
!!!OCY: Italia
!!!AGN: Mass (Paraphrase)
!!!AST: renaissance, vocal
!!!ASW: Gregorian Mass
!!!PWK: Masses, Book Mantuan I
!!!RNB: Cadence finals: A
!!!YOR: Le Opere Complete, v. 18, p. 42
!!!YOO: Rome, Italy: Fratelli Scalera
!!!END: 1992//
!!!EED: John Miller
!!!YEC: Copyright 2000, John Miller
!!!YEN: United States of America
!!!YEM: Rights to all derivative electronic formats reserved.
!!!YEM: Refer to licensing agreement for further details.
!!!YEM: This file must be accompanied by the licensing agreement.
!!!YEM: A copy of the licensing agreement may be found at http://www.music-cog.ohio-state.edu/HumdrumDatabases/Palestrina/license.txt
!!!EMD: converted to Humdrum by Bret Aarden
